public/library/velocity-text-dark.svg

<svg viewBox="0 0 843 248" aria-hidden="true" xmlns="http://www.w3.org/2000/svg"><path d="M249.651 182.059C246.815 181.906 243.999 182.606 241.573 184.067C239.147 185.528 237.225 187.681 236.06 190.244H235.469V167.003H226.162V229.564H235.174V222.256H235.912C237.11 224.825 239.06 226.979 241.51 228.439C243.959 229.898 246.796 230.596 249.651 230.441C261.174 230.441 269.447 221.379 269.447 206.177C269.447 190.975 261.174 182.059 249.651 182.059ZM247.731 222.694C239.753 222.694 235.321 215.97 235.321 206.031C235.321 196.091 239.606 189.659 247.731 189.659C256.151 189.659 260.288 196.676 260.288 206.031C260.288 215.386 256.004 222.694 247.731 222.694Z"/><path d="M294.854 219.182H294.411L282.445 182.786H272.547L289.979 230.291L288.797 233.361C286.433 239.646 283.183 240.085 278.013 238.769L275.797 246.224C277.841 246.916 279.989 247.262 282.149 247.247C289.831 247.247 294.559 243.3 297.366 235.846L316.866 182.64H306.968L294.854 219.182Z"/><path d="M385.555 207.488C385.555 215.966 379.646 222.105 370.044 222.105C360.441 222.105 354.532 215.966 354.532 207.488V167.145H344.93V208.365C344.93 221.52 354.828 230.875 370.044 230.875C385.26 230.875 395.158 221.52 395.158 208.365V167.145H385.555V207.488Z"/><path d="M429.594 203.412L422.06 201.658C416.89 200.489 414.526 198.735 414.674 195.519C414.674 191.865 418.662 189.38 423.833 189.38C429.594 189.38 432.254 192.596 433.288 195.665L441.708 194.203C439.788 186.895 434.026 182.071 423.833 182.071C413.049 182.071 405.514 187.626 405.514 195.958C405.514 202.681 409.651 207.067 418.515 208.967L426.492 210.721C431.072 211.744 433.14 213.79 433.14 216.714C433.14 220.368 429.151 223.145 423.094 223.145C417.628 223.145 414.083 220.807 412.901 216.129L404.037 217.445C405.514 225.776 412.605 230.454 423.242 230.454C434.765 230.454 442.595 224.461 442.595 215.983C442.595 209.405 438.311 205.312 429.594 203.412Z"/><path d="M470.358 182.071C457.062 182.071 448.494 192.011 448.494 206.482C448.494 220.953 457.062 230.6 471.097 230.6C481.438 230.6 488.824 225.484 490.892 217.883L482.176 216.275C480.551 220.66 476.563 222.999 471.244 222.999C463.267 222.999 457.949 217.883 457.801 208.821H491.483V205.605C491.336 188.649 481.142 182.071 470.358 182.071ZM457.653 202.097C458.097 195.373 462.972 189.672 470.358 189.672C477.744 189.672 482.176 194.934 482.324 202.097H457.653Z"/><path d="M508.912 190.117H508.469V182.663H499.605V229.583H508.912V200.934C508.912 194.795 513.64 190.41 520.288 190.41C521.932 190.383 523.572 190.58 525.163 190.994V182.224C523.837 182.097 522.505 182.048 521.174 182.078C518.527 181.93 515.903 182.634 513.694 184.082C511.484 185.531 509.807 187.648 508.912 190.117Z"/><path d="M549.091 189.818C551.519 189.708 553.908 190.456 555.83 191.929C557.752 193.402 559.081 195.504 559.58 197.858H568.592C567.557 188.357 559.728 182.071 548.943 182.071C535.5 182.071 526.932 192.011 526.932 206.336C526.932 220.66 535.205 230.6 549.091 230.6C560.319 230.6 567.557 223.876 568.592 214.814H559.58C559.106 217.18 557.784 219.298 555.856 220.775C553.928 222.253 551.526 222.991 549.091 222.853C541.261 222.853 536.239 216.421 536.239 206.189C536.239 195.958 541.261 189.818 549.091 189.818Z"/><path d="M596.077 182.071C582.929 182.071 574.213 192.011 574.213 206.482C574.213 220.953 582.781 230.6 596.816 230.6C607.157 230.6 614.543 225.484 616.612 217.883L607.895 216.275C606.27 220.66 602.282 222.999 596.963 222.999C588.986 222.999 583.815 217.883 583.52 208.821H617.203V205.605C617.055 188.649 606.861 182.071 596.077 182.071ZM583.372 202.097C583.815 195.373 588.69 189.672 596.077 189.672C603.464 189.672 607.896 194.934 608.043 202.097H583.372Z"/><path d="M648.673 182.071C641.582 182.071 636.854 185.287 634.638 190.257H634.047V182.656H625.184V229.577H634.491V201.658C634.491 194.204 639.07 189.818 645.57 189.818C651.775 189.818 655.616 193.911 655.616 200.635V229.431H664.923V199.612C664.775 188.21 658.275 182.071 648.673 182.071Z"/><path d="M692.999 222.117C690.044 222.117 687.385 221.094 687.385 215.832V189.959H697.135V182.651H687.385V171.396H678.078V182.651H671.135V189.959H678.078V217.732C678.078 226.21 684.578 230.449 691.965 230.302C694.03 230.338 696.085 229.991 698.021 229.279L696.396 221.678C695.285 221.957 694.145 222.104 692.999 222.117V222.117Z"/><path d="M714.571 190.117H714.127V182.663H705.264V229.583H714.571V200.934C714.571 194.795 719.298 190.41 725.945 190.41C727.59 190.383 729.23 190.58 730.821 190.994V182.224C729.495 182.097 728.163 182.048 726.832 182.078C724.185 181.93 721.561 182.634 719.352 184.082C717.142 185.531 715.465 187.648 714.571 190.117V190.117Z"/><path d="M741.007 164.516C739.502 164.472 738.04 165.014 736.935 166.025C735.83 167.036 735.171 168.436 735.098 169.924C735.122 170.664 735.295 171.393 735.606 172.066C735.918 172.74 736.361 173.346 736.911 173.849C737.46 174.352 738.105 174.742 738.808 174.997C739.512 175.251 740.259 175.365 741.007 175.332C741.758 175.387 742.513 175.288 743.224 175.041C743.935 174.794 744.587 174.404 745.139 173.897C745.692 173.389 746.132 172.774 746.433 172.091C746.734 171.407 746.89 170.67 746.89 169.924C746.89 169.178 746.734 168.441 746.433 167.757C746.132 167.073 745.692 166.459 745.139 165.951C744.587 165.444 743.935 165.054 743.224 164.807C742.513 164.56 741.758 164.461 741.007 164.516V164.516Z"/><path d="M745.739 182.64H736.432V229.56H745.739V182.64Z"/><path d="M775.853 189.818C778.281 189.708 780.67 190.456 782.591 191.929C784.513 193.402 785.842 195.504 786.341 197.858H795.353C794.319 188.357 786.489 182.071 775.705 182.071C762.262 182.071 753.693 192.011 753.693 206.336C753.693 220.66 761.966 230.6 775.853 230.6C787.08 230.6 794.319 223.876 795.353 214.814H786.341C785.868 217.18 784.545 219.298 782.617 220.775C780.69 222.253 778.287 222.991 775.853 222.853C768.023 222.853 763 216.421 763 206.189C763 195.958 768.171 189.818 775.853 189.818Z"/><path d="M826.532 203.412L818.998 201.658C813.827 200.489 811.463 198.735 811.611 195.519C811.611 191.865 815.6 189.38 820.771 189.38C826.532 189.38 829.191 192.596 830.225 195.665L838.646 194.203C836.725 186.895 830.964 182.071 820.771 182.071C809.986 182.071 802.452 187.626 802.452 195.958C802.452 202.681 806.588 207.067 815.452 208.967L823.43 210.721C828.009 211.744 830.078 213.79 830.078 216.714C830.078 220.368 826.089 223.145 820.032 223.145C814.566 223.145 811.02 220.807 809.838 216.129L800.975 217.445C802.452 225.776 809.543 230.454 820.18 230.454C831.703 230.454 839.532 224.461 839.532 215.983C839.532 209.405 835.248 205.312 826.532 203.412Z"/><path d="M428.098 136.595L388.359 84.2654L426.916 40.5603H395.45L359.108 83.6807V4.01758H333.551V136.741H359.108V112.184L370.483 100.198L396.041 136.741H428.098V136.595Z"/><path d="M444.939 30.9215H445.382C449.435 30.8502 453.301 29.2257 456.167 26.3901C459.032 23.5545 460.674 19.7292 460.746 15.7197C460.674 11.7103 459.032 7.88492 456.167 5.04934C453.301 2.21377 449.435 0.589264 445.382 0.517951C441.375 0.490103 437.518 2.02279 434.644 4.78502C431.769 7.54725 430.108 11.3174 430.019 15.2812V15.7197C429.979 17.6899 430.335 19.6482 431.066 21.4814C431.796 23.3146 432.887 24.9863 434.274 26.3999C435.662 27.8135 437.319 28.941 439.149 29.7171C440.98 30.4932 442.948 30.9026 444.939 30.9215V30.9215Z"/><path d="M432.086 137.925H456.905V41.7441H432.086V137.925Z"/><path d="M794.165 113.808C794.165 131.495 803.767 140.411 821.642 140.411C829.047 140.746 836.374 138.806 842.62 134.857L837.597 115.855C834.995 117.617 831.883 118.489 828.733 118.34H828.142C825.606 117.97 823.317 116.629 821.77 114.606C820.222 112.583 819.54 110.039 819.87 107.523V63.964H839.665V41.8922H819.87V15.2891H794.312V41.8922H778.357V63.964H794.312V113.808H794.165Z"/><path d="M601.247 125.337C604.819 129.867 609.393 133.526 614.617 136.035C619.841 138.543 625.577 139.834 631.384 139.808C655.611 139.808 674.225 121.537 674.225 89.233C674.225 57.66 655.759 38.6578 631.384 38.6578C625.58 38.6472 619.849 39.9448 614.627 42.4522C609.406 44.9595 604.83 48.6107 601.247 53.1287V3.86914H575.689V136.592H601.247V125.337ZM601.247 72.131C603.744 68.7245 607.003 65.9359 610.771 63.9834C614.538 62.0308 618.711 60.9672 622.963 60.8758C637.588 60.8758 647.191 72.131 647.191 88.6483C647.191 105.166 637.588 116.421 622.963 116.421C618.752 116.364 614.608 115.361 610.846 113.487C607.084 111.613 603.801 108.918 601.247 105.604V72.131Z"/><path d="M533.583 111.188C528.083 114.821 521.394 116.253 514.868 115.195C508.341 114.137 502.464 110.667 498.423 105.487L560.47 70.1137L557.959 65.1439C542.004 38.1023 514.526 29.0397 489.56 43.0721C488.821 43.5106 488.082 43.9491 487.491 44.3876C481.985 47.7516 477.206 52.1599 473.428 57.3587C469.651 62.5575 466.95 68.4442 465.481 74.6799C464.012 80.9157 463.803 87.3773 464.868 93.693C465.933 100.009 468.249 106.054 471.684 111.48C472.423 112.796 473.162 113.965 473.753 115.134C477.248 120.525 481.785 125.181 487.102 128.835C492.419 132.488 498.412 135.068 504.739 136.426C511.065 137.784 517.6 137.893 523.97 136.748C530.339 135.602 536.417 133.225 541.856 129.751C554.233 123.118 563.817 112.339 568.891 99.3479L551.015 90.5776C547.936 99.3191 541.737 106.648 533.583 111.188ZM499.753 60.1741C499.901 60.0279 500.049 60.0279 500.196 59.8817C502.689 58.3111 505.473 57.2495 508.386 56.7594C511.299 56.2693 514.282 56.3607 517.159 57.028C520.036 57.6954 522.749 58.9253 525.138 60.6454C527.527 62.3655 529.545 64.5411 531.072 67.0441L490.151 90.5776C487.573 85.247 487.131 79.1486 488.912 73.5083C490.693 67.868 494.567 63.104 499.753 60.1741V60.1741Z"/><path d="M122.747 125.073C117.827 130.28 111.88 134.432 105.273 137.273C98.6668 140.114 91.5411 141.584 84.3374 141.59C70.0953 141.552 56.4521 135.916 46.4091 125.925C36.3661 115.933 30.7461 102.403 30.7852 88.3111C30.8244 74.2193 36.5196 60.7201 46.618 50.7831C56.7164 40.8461 70.3907 35.2853 84.6328 35.3241C98.6314 35.3093 112.068 40.7741 122.009 50.5259C128.016 42.2847 135.914 35.5718 145.054 30.939C133.725 18.5119 118.836 9.79775 102.373 5.9589C85.9098 2.12005 68.655 3.33893 52.9099 9.45299C37.1648 15.567 23.6779 26.2856 14.2481 40.1792C4.81822 54.0727 -0.106318 70.4807 0.131255 87.2148C-0.0261505 109.171 8.62812 130.291 24.1941 145.94C39.7602 161.588 60.9657 170.485 83.1555 170.678H83.7464C95.4187 170.591 106.949 168.132 117.621 163.456C128.294 158.779 137.883 151.984 145.793 143.491C136.936 138.95 129.097 132.686 122.747 125.073V125.073Z"/><path d="M170.624 36.9093C157.088 37.0838 144.175 42.5718 134.728 52.1661C125.281 61.7605 120.072 74.6752 120.248 88.0691C120.425 101.463 125.971 114.239 135.668 123.587C145.365 132.934 158.417 138.088 171.954 137.913C172.102 137.913 172.102 137.913 172.102 138.06C185.533 137.921 198.362 132.52 207.776 123.04C217.191 113.56 222.425 100.775 222.33 87.4845V86.7536C222.259 80.1169 220.863 73.5595 218.223 67.458C215.583 61.3566 211.751 55.8314 206.946 51.1998C202.141 46.5682 196.459 42.9214 190.226 40.469C183.993 38.0166 177.332 36.8069 170.624 36.9093ZM171.954 113.795C164.854 113.697 158.073 110.863 153.052 105.895C148.031 100.927 145.166 94.2171 145.067 87.1921C145.067 81.9305 146.644 76.7871 149.598 72.4122C152.553 68.0374 156.752 64.6276 161.665 62.614C166.578 60.6005 171.984 60.0737 177.199 61.1002C182.415 62.1267 187.206 64.6604 190.966 68.3809C194.726 72.1014 197.287 76.8416 198.324 82.0021C199.362 87.1626 198.829 92.5116 196.794 97.3727C194.759 102.234 191.313 106.389 186.892 109.312C182.47 112.235 177.272 113.795 171.954 113.795V113.795Z"/><path d="M276.685 36.9093C269.982 36.9957 263.362 38.3875 257.203 41.0053C251.044 43.623 245.466 47.4155 240.788 52.1661C231.341 61.7605 226.133 74.6752 226.309 88.0691C226.485 101.463 232.032 114.239 241.729 123.587C251.425 132.934 264.478 138.088 278.015 137.913C278.162 137.913 278.162 137.913 278.162 138.06C291.594 137.921 304.422 132.52 313.837 123.04C323.252 113.56 328.485 100.775 328.39 87.4845V86.7536C328.319 80.1169 326.924 73.5595 324.284 67.458C321.643 61.3566 317.811 55.8314 313.006 51.1998C308.202 46.5682 302.52 42.9214 296.287 40.469C290.054 38.0166 283.392 36.8069 276.685 36.9093V36.9093ZM278.015 113.795C270.908 113.719 264.113 110.892 259.088 105.919C254.062 100.947 251.204 94.2241 251.128 87.1921C251.128 81.9305 252.705 76.7871 255.659 72.4122C258.613 68.0374 262.812 64.6276 267.725 62.614C272.638 60.6005 278.044 60.0737 283.26 61.1002C288.475 62.1267 293.266 64.6604 297.026 68.3809C300.787 72.1014 303.347 76.8416 304.385 82.0021C305.422 87.1626 304.89 92.5116 302.855 97.3727C300.82 102.234 297.374 106.389 292.952 109.312C288.531 112.235 283.332 113.795 278.015 113.795V113.795Z"/><path d="M729.639 137.91C736.297 137.885 742.885 136.56 749.024 134.009C755.163 131.459 760.733 127.734 765.413 123.049C770.094 118.363 773.793 112.809 776.299 106.706C778.805 100.602 780.067 94.0688 780.015 87.4811V86.7502C779.883 76.7631 776.76 67.039 771.043 58.8076C765.325 50.5763 757.269 44.2072 747.893 40.5059C738.517 36.8045 728.243 35.9371 718.369 38.0133C708.495 40.0895 699.464 45.016 692.42 52.17C685.376 59.3239 680.633 68.384 678.793 78.2046C676.953 88.0252 678.097 98.1652 682.08 107.343C686.064 116.52 692.709 124.322 701.174 129.763C709.639 135.204 719.545 138.039 729.639 137.91V137.91ZM730.377 60.7318C737.508 60.7318 744.347 63.5346 749.389 68.5237C754.432 73.5127 757.264 80.2793 757.264 87.3349C757.264 94.3905 754.432 101.157 749.389 106.146C744.347 111.135 737.508 113.938 730.377 113.938C723.247 113.938 716.408 111.135 711.366 106.146C706.323 101.157 703.491 94.3905 703.491 87.3349C703.491 80.2793 706.323 73.5127 711.366 68.5237C716.408 63.5346 723.247 60.7318 730.377 60.7318Z"/></svg>

<svg xmlns="http://www.w3.org/2000/svg" aria-hidden="true" viewBox="0 0 843 248"><path d="M249.651 182.059a14.2 14.2 0 0 0-8.078 2.008 13.96 13.96 0 0 0-5.513 6.177h-.591v-23.241h-9.307v62.561h9.012v-7.308h.738a14.2 14.2 0 0 0 5.598 6.183 14.4 14.4 0 0 0 8.141 2.002c11.523 0 19.796-9.062 19.796-24.264s-8.273-24.118-19.796-24.118m-1.92 40.635c-7.978 0-12.41-6.724-12.41-16.663s4.285-16.372 12.41-16.372c8.42 0 12.557 7.017 12.557 16.372s-4.284 16.663-12.557 16.663M294.854 219.182h-.443l-11.966-36.396h-9.898l17.432 47.505-1.182 3.07c-2.364 6.285-5.614 6.724-10.784 5.408l-2.216 7.455a19.4 19.4 0 0 0 6.352 1.023c7.682 0 12.41-3.947 15.217-11.401l19.5-53.206h-9.898zM385.555 207.488c0 8.478-5.909 14.617-15.511 14.617s-15.512-6.139-15.512-14.617v-40.343h-9.602v41.22c0 13.155 9.898 22.51 25.114 22.51s25.114-9.355 25.114-22.51v-41.22h-9.603zM429.594 203.412l-7.534-1.754c-5.17-1.169-7.534-2.923-7.386-6.139 0-3.654 3.988-6.139 9.159-6.139 5.761 0 8.421 3.216 9.455 6.285l8.42-1.462c-1.92-7.308-7.682-12.132-17.875-12.132-10.784 0-18.319 5.555-18.319 13.887 0 6.723 4.137 11.109 13.001 13.009l7.977 1.754c4.58 1.023 6.648 3.069 6.648 5.993 0 3.654-3.989 6.431-10.046 6.431-5.466 0-9.011-2.338-10.193-7.016l-8.864 1.316c1.477 8.331 8.568 13.009 19.205 13.009 11.523 0 19.353-5.993 19.353-14.471 0-6.578-4.284-10.671-13.001-12.571M470.358 182.071c-13.296 0-21.864 9.94-21.864 24.411s8.568 24.118 22.603 24.118c10.341 0 17.727-5.116 19.795-12.717l-8.716-1.608c-1.625 4.385-5.613 6.724-10.932 6.724-7.977 0-13.295-5.116-13.443-14.178h33.682v-3.216c-.147-16.956-10.341-23.534-21.125-23.534m-12.705 20.026c.444-6.724 5.319-12.425 12.705-12.425s11.818 5.262 11.966 12.425zM508.912 190.117h-.443v-7.454h-8.864v46.92h9.307v-28.649c0-6.139 4.728-10.524 11.376-10.524 1.644-.027 3.284.17 4.875.584v-8.77a34 34 0 0 0-3.989-.146 12.4 12.4 0 0 0-7.48 2.004 12.2 12.2 0 0 0-4.782 6.035M549.091 189.818c2.428-.11 4.817.638 6.739 2.111a10.12 10.12 0 0 1 3.75 5.929h9.012c-1.035-9.501-8.864-15.787-19.649-15.787-13.443 0-22.011 9.94-22.011 24.265 0 14.324 8.273 24.264 22.159 24.264 11.228 0 18.466-6.724 19.501-15.786h-9.012a9.98 9.98 0 0 1-3.724 5.961 10.18 10.18 0 0 1-6.765 2.078c-7.83 0-12.852-6.432-12.852-16.664 0-10.231 5.022-16.371 12.852-16.371M596.077 182.071c-13.148 0-21.864 9.94-21.864 24.411s8.568 24.118 22.603 24.118c10.341 0 17.727-5.116 19.796-12.717l-8.717-1.608c-1.625 4.385-5.613 6.724-10.932 6.724-7.977 0-13.148-5.116-13.443-14.178h33.683v-3.216c-.148-16.956-10.342-23.534-21.126-23.534m-12.705 20.026c.443-6.724 5.318-12.425 12.705-12.425s11.819 5.262 11.966 12.425zM648.673 182.071c-7.091 0-11.819 3.216-14.035 8.186h-.591v-7.601h-8.863v46.921h9.307v-27.919c0-7.454 4.579-11.84 11.079-11.84 6.205 0 10.046 4.093 10.046 10.817v28.796h9.307v-29.819c-.148-11.402-6.648-17.541-16.25-17.541M692.999 222.117c-2.955 0-5.614-1.023-5.614-6.285v-25.873h9.75v-7.308h-9.75v-11.255h-9.307v11.255h-6.943v7.308h6.943v27.773c0 8.478 6.5 12.717 13.887 12.57 2.065.036 4.12-.311 6.056-1.023l-1.625-7.601a14.6 14.6 0 0 1-3.397.439M714.571 190.117h-.444v-7.454h-8.863v46.92h9.307v-28.649c0-6.139 4.727-10.524 11.374-10.524 1.645-.027 3.285.17 4.876.584v-8.77a34 34 0 0 0-3.989-.146 12.4 12.4 0 0 0-7.48 2.004 12.18 12.18 0 0 0-4.781 6.035M741.007 164.516a5.78 5.78 0 0 0-4.072 1.509 5.66 5.66 0 0 0-1.837 3.899c.024.74.197 1.469.508 2.142.312.674.755 1.28 1.305 1.783a5.7 5.7 0 0 0 1.897 1.148 5.7 5.7 0 0 0 2.199.335 5.5 5.5 0 0 0 4.132-1.435 5.4 5.4 0 0 0 1.294-1.806 5.38 5.38 0 0 0-1.294-6.14 5.5 5.5 0 0 0-4.132-1.435M745.739 182.64h-9.307v46.92h9.307zM775.853 189.818a10.3 10.3 0 0 1 6.738 2.111 10.12 10.12 0 0 1 3.75 5.929h9.012c-1.034-9.501-8.864-15.787-19.648-15.787-13.443 0-22.012 9.94-22.012 24.265 0 14.324 8.273 24.264 22.16 24.264 11.227 0 18.466-6.724 19.5-15.786h-9.012a9.98 9.98 0 0 1-3.724 5.961 10.17 10.17 0 0 1-6.764 2.078c-7.83 0-12.853-6.432-12.853-16.664 0-10.231 5.171-16.371 12.853-16.371M826.532 203.412l-7.534-1.754c-5.171-1.169-7.535-2.923-7.387-6.139 0-3.654 3.989-6.139 9.16-6.139 5.761 0 8.42 3.216 9.454 6.285l8.421-1.462c-1.921-7.308-7.682-12.132-17.875-12.132-10.785 0-18.319 5.555-18.319 13.887 0 6.723 4.136 11.109 13 13.009l7.978 1.754c4.579 1.023 6.648 3.069 6.648 5.993 0 3.654-3.989 6.431-10.046 6.431-5.466 0-9.012-2.338-10.194-7.016l-8.863 1.316c1.477 8.331 8.568 13.009 19.205 13.009 11.523 0 19.352-5.993 19.352-14.471 0-6.578-4.284-10.671-13-12.571M428.098 136.595l-39.739-52.33 38.557-43.705H395.45l-36.342 43.12V4.019h-25.557V136.74h25.557v-24.557l11.375-11.986 25.558 36.543h32.057zM444.939 30.922h.443a15.73 15.73 0 0 0 10.785-4.532 15.4 15.4 0 0 0 4.579-10.67 15.4 15.4 0 0 0-4.579-10.67A15.73 15.73 0 0 0 445.382.517a15.34 15.34 0 0 0-10.738 4.267 15.02 15.02 0 0 0-4.625 10.496v.439c-.04 1.97.316 3.928 1.047 5.761a14.9 14.9 0 0 0 3.208 4.919 15.1 15.1 0 0 0 4.875 3.317 15.2 15.2 0 0 0 5.79 1.205M432.086 137.925h24.819v-96.18h-24.819zM794.165 113.808c0 17.687 9.602 26.603 27.477 26.603a36.2 36.2 0 0 0 20.978-5.554l-5.023-19.002a14.6 14.6 0 0 1-8.864 2.485h-.591a9.8 9.8 0 0 1-6.372-3.734 9.6 9.6 0 0 1-1.9-7.083V63.964h19.795V41.892H819.87V15.29h-25.558v26.603h-15.955v22.072h15.955v49.844zM601.247 125.337a37.9 37.9 0 0 0 13.37 10.698 38.35 38.35 0 0 0 16.767 3.773c24.227 0 42.841-18.271 42.841-50.575 0-31.573-18.466-50.575-42.841-50.575a38.56 38.56 0 0 0-16.757 3.794 38.15 38.15 0 0 0-13.38 10.677V3.869h-25.558v132.723h25.558zm0-53.206a27.5 27.5 0 0 1 9.524-8.148 27.8 27.8 0 0 1 12.192-3.107c14.625 0 24.228 11.255 24.228 27.772 0 16.518-9.603 27.773-24.228 27.773a28 28 0 0 1-12.117-2.934 27.7 27.7 0 0 1-9.599-7.883zM533.583 111.188a26.33 26.33 0 0 1-18.715 4.007 26.16 26.16 0 0 1-16.445-9.708l62.047-35.373-2.511-4.97c-15.955-27.042-43.433-36.104-68.399-22.072-.739.439-1.478.877-2.069 1.316a48.9 48.9 0 0 0-14.063 12.97 48.3 48.3 0 0 0-7.947 17.322 48.1 48.1 0 0 0-.613 19.013 48.25 48.25 0 0 0 6.816 17.787c.739 1.316 1.478 2.485 2.069 3.654a48.9 48.9 0 0 0 13.349 13.701 49.5 49.5 0 0 0 17.637 7.591 49.7 49.7 0 0 0 19.231.322 49.5 49.5 0 0 0 17.886-6.997c12.377-6.633 21.961-17.412 27.035-30.403l-17.876-8.77c-3.079 8.741-9.278 16.07-17.432 20.61m-33.83-51.014c.148-.146.296-.146.443-.292a22.3 22.3 0 0 1 8.19-3.123 22.4 22.4 0 0 1 8.773.269 22.3 22.3 0 0 1 7.979 3.617 22 22 0 0 1 5.934 6.4l-40.921 23.533a23.16 23.16 0 0 1-1.239-17.07 23.44 23.44 0 0 1 10.841-13.334M122.747 125.073a52.65 52.65 0 0 1-17.474 12.2 53.1 53.1 0 0 1-20.936 4.317c-14.242-.038-27.885-5.674-37.928-15.665-10.043-9.992-15.663-23.522-15.624-37.614.04-14.092 5.735-27.59 15.833-37.528s23.773-15.498 38.015-15.459c13.998-.015 27.435 5.45 37.376 15.202a64.7 64.7 0 0 1 23.045-19.587c-11.329-12.427-26.218-21.141-42.681-24.98A84 84 0 0 0 52.91 9.453c-15.745 6.114-29.232 16.833-38.662 30.726S-.106 70.481.131 87.215c-.157 21.956 8.497 43.076 24.063 58.725 15.566 15.648 36.772 24.545 58.962 24.738h.59a86 86 0 0 0 33.875-7.222 85.2 85.2 0 0 0 28.172-19.965 73.9 73.9 0 0 1-23.046-18.418"/><path d="M170.624 36.91c-13.536.174-26.449 5.662-35.896 15.256s-14.656 22.51-14.48 35.903c.177 13.394 5.723 26.17 15.42 35.518s22.749 14.501 36.286 14.326c.148 0 .148 0 .148.147 13.431-.139 26.26-5.54 35.674-15.02 9.415-9.48 14.649-22.265 14.554-35.556v-.73a49.9 49.9 0 0 0-4.107-19.296A50.4 50.4 0 0 0 206.946 51.2a51 51 0 0 0-16.72-10.731 51.4 51.4 0 0 0-19.602-3.56m1.33 76.885a27.41 27.41 0 0 1-18.902-7.9 26.84 26.84 0 0 1-7.985-18.703 26.4 26.4 0 0 1 4.531-14.78 26.83 26.83 0 0 1 12.067-9.798 27.15 27.15 0 0 1 15.534-1.514 26.98 26.98 0 0 1 13.767 7.28 26.5 26.5 0 0 1 7.358 13.622 26.34 26.34 0 0 1-1.53 15.37 26.67 26.67 0 0 1-9.902 11.94 27.1 27.1 0 0 1-14.938 4.483M276.685 36.91a51.5 51.5 0 0 0-19.482 4.095 51.1 51.1 0 0 0-16.415 11.161c-9.447 9.595-14.655 22.51-14.479 35.903.176 13.394 5.723 26.17 15.42 35.518s22.749 14.501 36.286 14.326c.147 0 .147 0 .147.147 13.432-.139 26.26-5.54 35.675-15.02s14.648-22.265 14.553-35.556v-.73a49.9 49.9 0 0 0-4.106-19.296A50.4 50.4 0 0 0 313.006 51.2a51 51 0 0 0-16.719-10.731 51.4 51.4 0 0 0-19.602-3.56m1.33 76.885c-7.107-.076-13.902-2.903-18.927-7.876a26.75 26.75 0 0 1-7.96-18.727 26.4 26.4 0 0 1 4.531-14.78 26.83 26.83 0 0 1 12.066-9.798A27.16 27.16 0 0 1 283.26 61.1a26.98 26.98 0 0 1 13.766 7.28 26.5 26.5 0 0 1 7.359 13.622 26.35 26.35 0 0 1-1.53 15.37 26.66 26.66 0 0 1-9.903 11.94 27.1 27.1 0 0 1-14.937 4.483M729.639 137.91a51 51 0 0 0 19.385-3.901 50.6 50.6 0 0 0 16.389-10.96 50 50 0 0 0 10.886-16.343 49.6 49.6 0 0 0 3.716-19.225v-.73a50.14 50.14 0 0 0-8.972-27.943c-5.718-8.232-13.774-14.6-23.15-18.302a51.55 51.55 0 0 0-29.524-2.493A51.2 51.2 0 0 0 692.42 52.17a50.3 50.3 0 0 0-13.627 26.035 50.02 50.02 0 0 0 3.287 29.138c3.984 9.177 10.629 16.979 19.094 22.42a51.44 51.44 0 0 0 28.465 8.147m.738-77.178c7.131 0 13.97 2.803 19.012 7.792a26.46 26.46 0 0 1 7.875 18.81 26.46 26.46 0 0 1-7.875 18.812c-5.042 4.989-11.881 7.792-19.012 7.792-7.13 0-13.969-2.803-19.011-7.792a26.46 26.46 0 0 1-7.875-18.811 26.46 26.46 0 0 1 7.875-18.811c5.042-4.99 11.881-7.792 19.011-7.792"/></svg>
